svgs/sharp-light/golf-club.svg

<svg xmlns="http://www.w3.org/2000/svg" viewBox="0 0 512 512"><!--! Font Awesome Pro 6.6.0 by @fontawesome - https://fontawesome.com License - https://fontawesome.com/license (Commercial License) Copyright 2024 Fonticons, Inc. --><path d="M481.7 8.9L303.5 365.1 20.2 288.6 0 283.1 0 304 0 496l0 16 16 0 240 0 9.9 0 4.4-8.8 56-112 184-368L481.7 8.9zM32 324.9l256.9 69.4L246.1 480 32 480l0-32 48 0 16 0 0-32-16 0-48 0 0-16 48 0 16 0 0-32-16 0-48 0 0-43.1z"/></svg>

<svg xmlns="http://www.w3.org/2000/svg" viewBox="0 0 512 512"><!--! Font Awesome Pro 6.4.0 by @fontawesome - https://fontawesome.com License - https://fontawesome.com/license (Commercial License) Copyright 2023 Fonticons, Inc. --><path d="M481.7 8.8L303.5 365.1 20.2 288.6 0 283.1V304 496v16H16 256h9.9l4.4-8.8 56-112 184-368L481.7 8.8zM32 324.9l256.9 69.4L246.1 480H32V448H80 96V416H80 32V400H80 96V368H80 32V324.9z"/></svg>
